tools/download-figma-icons/icons/solid/connector-others.svg

<svg width="24" height="24" viewBox="0 0 24 24" fill="none" xmlns="http://www.w3.org/2000/svg">
<path d="M18.75 7.5H18V2.25C18 1.0125 16.9875 0 15.75 0C14.5125 0 13.5 1.0125 13.5 2.25V7.5H10.5V2.25C10.5 1.0125 9.4875 0 8.25 0C7.0125 0 6 1.0125 6 2.25V7.5H5.25C4.0125 7.5 3 8.5125 3 9.75V15.315C3 15.855 3.195 16.3725 3.54 16.785L6.57 20.3175C6.6825 20.4525 6.75 20.625 6.75 20.805V22.5C6.75 23.325 7.425 24 8.25 24H15.75C16.575 24 17.25 23.325 17.25 22.5V20.805C17.25 20.625 17.3175 20.4525 17.43 20.3175L20.46 16.785C20.805 16.3725 21 15.855 21 15.315V9.75C21 8.5125 19.9875 7.5 18.75 7.5ZM7.5 2.25C7.5 1.8375 7.8375 1.5 8.25 1.5C8.6625 1.5 9 1.8375 9 2.25V7.5H7.5V2.25ZM15 16.5H9C8.5875 16.5 8.25 16.1625 8.25 15.75C8.25 15.3375 8.5875 15 9 15H15C15.4125 15 15.75 15.3375 15.75 15.75C15.75 16.1625 15.4125 16.5 15 16.5ZM15.75 13.5H8.25C7.8375 13.5 7.5 13.1625 7.5 12.75C7.5 12.3375 7.8375 12 8.25 12H15.75C16.1625 12 16.5 12.3375 16.5 12.75C16.5 13.1625 16.1625 13.5 15.75 13.5ZM16.5 7.5H15V2.25C15 1.8375 15.3375 1.5 15.75 1.5C16.1625 1.5 16.5 1.8375 16.5 2.25V7.5Z" fill="black"/>
</svg>

<svg xmlns="http://www.w3.org/2000/svg" width="24" height="24" fill="none" viewBox="0 0 24 24"><path fill="currentColor" d="M18.75 7.5H18V2.25A2.257 2.257 0 0 0 15.75 0a2.257 2.257 0 0 0-2.25 2.25V7.5h-3V2.25A2.257 2.257 0 0 0 8.25 0 2.257 2.257 0 0 0 6 2.25V7.5h-.75A2.257 2.257 0 0 0 3 9.75v5.565c0 .54.195 1.057.54 1.47l3.03 3.532c.112.136.18.308.18.488V22.5c0 .825.675 1.5 1.5 1.5h7.5c.825 0 1.5-.675 1.5-1.5v-1.695c0-.18.067-.352.18-.488l3.03-3.532c.345-.413.54-.93.54-1.47V9.75a2.257 2.257 0 0 0-2.25-2.25M7.5 2.25c0-.413.338-.75.75-.75s.75.337.75.75V7.5H7.5zM15 16.5H9a.75.75 0 0 1-.75-.75c0-.412.338-.75.75-.75h6c.412 0 .75.338.75.75 0 .413-.338.75-.75.75m.75-3h-7.5a.75.75 0 0 1-.75-.75c0-.412.338-.75.75-.75h7.5c.413 0 .75.338.75.75s-.337.75-.75.75m.75-6H15V2.25c0-.413.338-.75.75-.75.413 0 .75.337.75.75z"/></svg>
